X:593
T: Wangjian ritou jiu chutou
N: C2015
O: China,Fujian Ninghua
S: II, 593, 2)]
R: Shange]
M: 2/4
L: 1/16
K: D
f2f2d2d2 | e8 |
d2f2e4 | d2edB4 |
B2e2e2d2 | B2dBA4 |
B2d2e2e2 | e2B2d4- | d4B4 | B4z4

@@@ Tune index: 7148
